svg/education/globe_fill.svg

<?xml version="1.0" encoding="UTF-8"?>
<svg width="24px" height="24px" viewBox="0 0 24 24" version="1.1" xmlns="http://www.w3.org/2000/svg" xmlns:xlink="http://www.w3.org/1999/xlink">
    <title>globe_fill</title>
    <g id="页面-1" stroke="none" stroke-width="1" fill="none" fill-rule="evenodd">
        <g id="Education" transform="translate(-336.000000, -48.000000)">
            <g id="globe_fill" transform="translate(336.000000, 48.000000)">
                 <path d="M24,0 L24,24 L0,24 L0,0 L24,0 Z M12.5934901,23.257841 L12.5819402,23.2595131 L12.5108777,23.2950439 L12.4918791,23.2987469 L12.4918791,23.2987469 L12.4767152,23.2950439 L12.4056548,23.2595131 C12.3958229,23.2563662 12.3870493,23.2590235 12.3821421,23.2649074 L12.3780323,23.275831 L12.360941,23.7031097 L12.3658947,23.7234994 L12.3769048,23.7357139 L12.4804777,23.8096931 L12.4953491,23.8136134 L12.4953491,23.8136134 L12.5071152,23.8096931 L12.6106902,23.7357139 L12.6232938,23.7196733 L12.6232938,23.7196733 L12.6266527,23.7031097 L12.609561,23.275831 C12.6075724,23.2657013 12.6010112,23.2592993 12.5934901,23.257841 L12.5934901,23.257841 Z M12.8583906,23.1452862 L12.8445485,23.1473072 L12.6598443,23.2396597 L12.6498822,23.2499052 L12.6498822,23.2499052 L12.6471943,23.2611114 L12.6650943,23.6906389 L12.6699349,23.7034178 L12.6699349,23.7034178 L12.678386,23.7104931 L12.8793402,23.8032389 C12.8914285,23.8068999 12.9022333,23.8029875 12.9078286,23.7952264 L12.9118235,23.7811639 L12.8776777,23.1665331 C12.8752882,23.1545897 12.8674102,23.1470016 12.8583906,23.1452862 L12.8583906,23.1452862 Z M12.1430473,23.1473072 C12.1332178,23.1423925 12.1221763,23.1452606 12.1156365,23.1525954 L12.1099173,23.1665331 L12.0757714,23.7811639 C12.0751323,23.7926639 12.0828099,23.8018602 12.0926481,23.8045676 L12.108256,23.8032389 L12.3092106,23.7104931 L12.3186497,23.7024347 L12.3186497,23.7024347 L12.3225043,23.6906389 L12.340401,23.2611114 L12.337245,23.2485176 L12.337245,23.2485176 L12.3277531,23.2396597 L12.1430473,23.1473072 Z" id="MingCute" fill-rule="nonzero"></path>
                <path d="M18.667,1.54662 C18.2555,1.1783 17.6233,1.21332 17.255,1.62484 C16.8866,2.03637 16.9217,2.66857 17.3332,3.03689 C18.9715,4.50318 20.0001,6.63084 20.0001,9.00008 C20.0001,13.4146 16.4244,16.994 12.0113,17.0001 L12.0001,17 L11.9889,17.0001 C9.21189,16.9963 6.76583,15.5783 5.33284,13.4231 C5.02705,12.9632 4.40634,12.8383 3.94643,13.144 C3.48653,13.4498 3.36159,14.0705 3.66737,14.5304 C5.2836,16.9613 7.93846,18.6466 11.0001,18.9507 L11.0001,20 L8.00011,20 C7.44782,20 7.00011,20.4477 7.00011,21 C7.00011,21.5523 7.44782,22 8.00011,22 L16.0001,22 C16.5524,22 17.0001,21.5523 17.0001,21 C17.0001,20.4477 16.5524,20 16.0001,20 L13.0001,20 L13.0001,18.9507 C18.0534,18.449 22.0001,14.1854 22.0001,9.00008 C22.0001,6.03832 20.7113,3.37626 18.667,1.54662 Z M12.00011,2.00001 C8.13411,2.00001 5.00011,5.13402 5.00011,9.00001 C5.00011,12.866 8.13411,16.00001 12.00011,16.00001 C15.8661,16.00001 19.00011,12.866 19.00011,9.00001 C19.00011,5.13402 15.8661,2.00001 12.00011,2.00001 Z" id="形状" fill="#09244B"></path>
            </g>
        </g>
    </g>
</svg>

<svg xmlns="http://www.w3.org/2000/svg" width="24" height="24"><g fill="none" fill-rule="evenodd"><path d="M24 0v24H0V0h24ZM12.593 23.258l-.011.002-.071.035-.02.004-.014-.004-.071-.035c-.01-.004-.019-.001-.024.005l-.004.01-.017.428.005.02.01.013.104.074.015.004.012-.004.104-.074.012-.016.004-.017-.017-.427c-.002-.01-.009-.017-.017-.018Zm.265-.113-.013.002-.185.093-.01.01-.003.011.018.43.005.012.008.007.201.093c.012.004.023 0 .029-.008l.004-.014-.034-.614c-.003-.012-.01-.02-.02-.022Zm-.715.002a.023.023 0 0 0-.027.006l-.006.014-.034.614c0 .012.007.02.017.024l.015-.002.201-.093.01-.008.004-.011.017-.43-.003-.012-.01-.01-.184-.092Z"/><path fill="#09244B" d="M18.667 1.547a1 1 0 1 0-1.334 1.49A8 8 0 0 1 12.011 17h-.022a7.992 7.992 0 0 1-6.656-3.577 1 1 0 0 0-1.666 1.107A9.997 9.997 0 0 0 11 18.95V20H8a1 1 0 1 0 0 2h8a1 1 0 1 0 0-2h-3v-1.05c5.053-.501 9-4.765 9-9.95a9.977 9.977 0 0 0-3.333-7.453ZM12 2a7 7 0 1 0 0 14 7 7 0 0 0 0-14Z"/></g></svg>
